X: 199
T: Polonaise No. 2	 Op. 26
C: Fryderyk Chopin
%%abc-version 2.0
%%abcx-abcm2ps-target-version 5.9.1 (29 Sep 2008)
%%abc-creator hum2abc beta
%%abcx-conversion-date 2021/10/03 11:23:55
%%abc-edited-by Wojciech Jakubiak-Danek
%%abc-edited-by Emilia Ziętek
%%abc-edited-by Emilia Ziętek
%%abcx-initial-encoding-date 2019-05-09
%%humdrum-veritas 1988689153
%%humdrum-veritas-data 1481165398
%%linebreak <none>
%%barnumbers 0
L: 1/16
M: 3/4
N: Derived from 026-1a-Sm-002.krn
P: DEUX POLONAISES Pour le Piano
Q: "MAESTOSO."
%%staves {1 2}
V: 1 clef=treble
V: 2 clef=bass
K: Gb
[V:1] B,C=A,B, E,2z4.[B,G,E,].[B,G,E,] | 
[V:2] B,,C,=A,,B,, E,,2z4[B,,E,,][B,,E,,] | 
[V:1] .[B,2G,2E,2].[B,G,E,].[B,G,E,] .[B,2G,2E,2].[B,G,E,].[B,G,E,] [B,2G,2E,2] z2 | 
[V:2] [B,,2E,,2][B,,E,,][B,,E,,] [B,,2E,,2][B,,E,,][B,,E,,] [B,,2E,,2] z2 | 
[V:1] B,C=A,B, E,2z4.[C_A,F,].[CA,F,] | 
[V:2] B,,C,=A,,B,, E,,2z4[E,_A,,E,,][E,A,,E,,] | 
[V:1] .[C2A,2F,2].[CA,F,].[CA,F,] .[C2A,2F,2].[CA,F,].[CA,F,] .[C2A,2F,2] z2 | 
[V:2] [E,2A,,2E,,2][E,A,,E,,][E,A,,E,,] [E,2A,,2E,,2][E,A,,E,,][E,A,,E,,] [E,2A,,2E,,2] z2 | 
[V:1] CDB,C E,2z4.[CA,F,].[CA,F,] | 
[V:2] C,D,B,,C, E,,2z4[E,A,,E,,][E,A,,E,,] | 
[V:1] .[C2A,2F,2].[CA,F,].[CA,F,] .[C2A,2F,2].[CA,F,].[CA,F,] .[C2A,2F,2] z2 | 
[V:2] [E,2A,,2E,,2][E,A,,E,,][E,A,,E,,] [E,2A,,2E,,2][E,A,,E,,][E,A,,E,,] [E,2A,,2E,,2] z2 | 
[V:1] CDB,C E,2 .[CA,F,].[CA,F,] .[C2A,2F,2].[FECF,].[FECF,] | 
[V:2] C,D,B,,C, E,,2 [E,C,A,,E,,][E,C,A,,E,,] [E,2C,2A,,2E,,2][E,C,A,,E,,][E,C,A,,E,,] | 
[V:1] .[F2E2C2F,2].[fecF].[fecF] .[f2e2c2F2].[fecF].[fecF] .[f2e2c2F2].[fecF].[fecF] | 
[V:2] [E,2C,2A,,2E,,2][ECA,E,][ECA,E,] [E2C2A,2E,2][ECA,E,][ECA,E,] [E2C2A,2E,2][ECA,E,][ECA,E,] | 
[V:1] [b8f8B8]!accent!E4 | 
[V:2] .[=D,2=D,,2][B,F,D,][B,F,D,] [B,2F,2D,2][B,F,D,][B,F,D,] [B,2=G,2E,2_D,2][B,G,E,D,][B,G,E,D,] | 
[V:1] !trill!E8(17:16:17=D//E//F//G//A//B//c//_d//e//f//g//a//b//c'//d'//e'//f'// | 
[V:2] [B,2E,2C,2][B,E,C,][B,E,C,] [B,2E,2C,2][B,2E,2C,2][A,2E,2C,2][=A,2E,2C,2] | 
[V:1] g'4g'e'bg !mordent!f=efz/!accent!b/ | 
[V:2] [B,2G,2E,2B,,2][K:clef=treble][BGEB,][BGEB,] [B2G2E2B,2][B2G2E2B,2] [B2A2=D2B,2][B2A2D2B,2][K:clef=bass] | 
[V:1] _e8z2 =de | 
[V:2] x2G4G4x2 & x4G,4B,4 | 
[V:1] gff=c!accent!_c4-cB=de | 
[V:2] =A,4_A,4G,4 & =A,2[E2F2] _A,2[=D2F2] G,2[E2G2] | 
[V:1] gff=c!accent!_c4-cB=de | 
[V:2] =A,4_A,4G,4[K:clef=treble] & =A,2[E2F2] _A,2[=D2F2] G,2[B,2E2G2] | 
[V:1] gff=c a=gge baae | 
[V:2] =A,2[F2E2=C2] B,2[=G2E2_D2] _C2[A2E2] & =A,4B,4_C4 | 
[V:1] _c'bbf c'bb=a bc'bg' | 
[V:2] =D2[B2F2] E2[B2G2] B,2[B2G2] & =D4E4B,4 | 
[V:1] g'f'f'_c'!accent!c'4-c'b=d'e' | 
[V:2] =D2[c2A2] E2!accent![c2G2] B,2[B2G2] & =D4E4B,4 | 
[V:1] g'f'f'_c'!accent!c'4-c'bb_f' | 
[V:2] =D2[_c2A2] E2!accent![c2G2] _D2[B2=G2=E2] & =D4E4_D4 | 
[V:1] _f'e'e'a =f'e'e'g f'e'e'f | 
[V:2] C2[A2_E2] B,2[B2E2] A,2[c2F2E2][K:clef=bass] & C4B,4A,4 | 
[V:1] z cc=D!accent!D4E2 z2 & x4>A,4G,2 x2 :|]  
[V:2] [A,2B,,2] z2 z2 B,,2E,,2 z2 :|]  
[V:1] .[F4A,4F,4]z2 .[D2B,2] .[FA,].E.[D2B,2] | 
[V:2] .[D,4D,,4]z2 .[D,2G,,2] .[D,2D,,2].[D,2G,,2] | 
[V:1] .[A2F2D2C2] .[AFDC].[AFDC] .[BFDC].A.[FDC].[DC] .[B2D2B,2].[G2D2B,2] | 
[V:2] .[D,2D,,2] .[A,D,].[A,D,] .[A,2D,2].[A,D,].[A,D,] .[G,2G,,2].B,,2 | 
[V:1] .[F4D4A,4]z2 .[D2B,2] .[FA,].E.[D2A,2] | 
[V:2] .D,4z2 .[D,2G,,2] .[D,2D,,2].[D,F,,].G,, | 
[V:1] .[E2=C2A,2] .[EC].[EC] .[FD].[EC].[DB,].[EC] .[F2D2].[D2F,2] | 
[V:2] .A,,2 .[A,A,,].[A,A,,] .[A,2A,,2].[A,A,,].[A,A,,] .[A,2D,2].[A,2D,2] | 
[V:1] !accent![F4D4]x4.f.e.d2 & x4z2 .[d2B2G2][A2F2][B2G2] | 
[V:2] !accent![A,4D,4]z2 .[D2G,2].[D2D,2].[D2G,2] | 
[V:1] x4.b.a.f.dx4 & .[a2d2c2].[adc].[adc] [d2c2][dc]c .[b2d2B2].[g2d2B2] | 
[V:2] z2 .[FDA,F,].[FDA,F,] .[F2D2A,2F,2].[FDA,F,].[FDA,F,]x4 & [D,8D,,8].[G,2G,,2].[B,2B,,2] | 
[V:1] x8.f.e.d2 & .[f4d4A4F4]z2 .[d2B2G2] [A2F2][A2F2] | 
[V:2] .[D4D,4]z2 .[D2G,2] .[D,2D,,2].[F,F,,].[G,G,,] | 
[V:1] x4.f.e.d.e x2 x2 & .[e2A2G2].[eAG].[eAG] [AG][AG][AG][AG] .[f2A2F2].[d2D2] | 
[V:2] .[A,2A,,2].[=CA,E,].[CA,E,] .[C2A,2E,2].[CA,E,].[CA,E,] .[D2A,2D,2].[D,2D,,2] | 
[V:1] [^c2^C2](3^d!accent!^Dd .[=e2=E2] .[e=AE].[eAE] .[e2A2E2].[e2A2E2] | 
[V:2] [^C,2^C,,2][^D,2^D,,2] [=E,2=E,,2] .[^C=A,E,].[CA,E,] .[C2A,2E,2].[C2A,2E,2] | 
[V:1] .[=e2^G2=E2].[e=dG].[edG] .[^fdG].[edG].[=aed=A].[=bed=B] .[^c'2e2^c2].[a2A2] | 
[V:2] .[=D2=B,2=E,2].[=EDB,E,].[EDB,E,] .[E2D2B,2E,2].[EDB,E,].[EDB,E,] .[E2^C2=A,2].[=A,2=A,,2] | 
[V:1] [=a2=A2](3_bBb .[=c'2=c2] .[c'fc].[c'fc] [c'2f2c2].[c'fc].[c'fc] | 
[V:2] [=A,,2=A,,,2][_B,,2_B,,,2] [=C,2=C,,2] .[=C=A,C,].[CA,C,] .[C2A,2C,2].[CA,C,].[CA,C,] | 
[V:1] .[=c'2=e2=c2].[c'ec].[c'ec] .[=d'f=d].[c'ec].[f'=af].[=g'b=g] .[=a'2c'2=a2].[f'2a2f2] | 
[V:2] .[=C2B,2=G,2=C,2].[CB,G,C,].[CB,G,C,] .[C2B,2G,2C,2].[CB,G,C,].[CB,G,C,] .[C2=A,2F,2].[F,2F,,2] | 
[V:1] !accent![_g'3=a3_g3]e'/=c'/ =a/g/e/=c/=A/G/E/=C/ =A,2[D2B,2] | 
[V:2] [_G,8-_E,8]x4 & F,,2.F,,.F,, F,,2F,,2 [G,2F,,2][=E,2F,,2] | 
[V:1] [=C2=A,2] .!accent![gG].[fF] .[=e2=E2].!accent![fF].[eE] .[_e2_E2].!accent![=d=D].[_d_D] | 
[V:2] [F,2F,,2] .[G,F,,].[F,F,,] .[=E,2F,,2].[F,F,,].[E,F,,] .[_E,2F,,2].[=D,F,,].[_D,F,,] | 
[V:1] .[=c2=C2] !accent![_g'=c'=a]e'/c'/ a/g/e/=c/=A/G/E/C/ =A,2[D2B,2] | 
[V:2] [=C,2F,,2] .[G,F,,].[G,F,,] .[G,2F,,2].[G,2F,,2] [G,2F,,2][=E,2F,,2] | 
[V:1] [=C2=A,2] .!accent![_g_G].[fF] .[=e2=E2].!accent![fF][eE] .[_e2_E2].!accent![=d=D].[_d_D] | 
[V:2] [F,2F,,2] .[G,F,,].[F,F,,] .[=E,2F,,2].[F,F,,].[E,F,,] .[_E,2F,,2].[=D,F,,].[_D,F,,] | 
[V:1] .[=c2=C2].!accent![fF].[=e=E] .[_e2_E2].!accent![_f_F].[eE] .[=d2=D2].!accent![_d_D].[=c=C] | 
[V:2] .[=C,2F,,2].[F,F,,].[=E,F,,] .[_E,2F,,2].[_F,=F,,].[E,F,,] .[=D,2F,,2].[_D,F,,].[C,F,,] | 
[V:1] .[B2B,2].!accent![eE].[=d=D] .[_d2_D2].!accent![eE].[dD] .[=c2=C2].!accent![BB,].[AB,] | 
[V:2] .[B,,2F,,2].[E,F,,].[=D,F,,] .[_D,2F,,2].[E,F,,].[D,F,,] .[=C,2F,,2].[B,,F,,].[C,F,,] | 
[V:1] !trill!G8FGAG & B,2B,B, B,2B,2 B,2B,2 | 
[V:2] [D,2F,,2][D,F,,][D,F,,] [D,2F,,2][D,2F,,2] [D,2F,,2][=E,2D,2F,,2] | 
[V:1] [F2=A,2] .[FF,].[FF,] .[F2F,2].[F2F,2].[F2F,2].[F2F,2] | 
[V:2] [F,2C,2F,,2] z2z4z4 | 
[V:1] z4[B4D4][=A4=C4]- & !accent!F12 | 
[V:2] F,12 | 
[V:1] [=A4=C4][=A4=C4][^G4=B,4]- & !accent!=E12 | 
[V:2] =E,12 | 
[V:1] [G4=B,4][A4C4][=G4_B,4] & _E2EE E2E2 E2E2- | 
[V:2] _E,2E,E, E,2E,2 E,2E,2 | 
[V:1] [_G4E4=C4][F4=D4]z4 | 
[V:2] =A,,4B,,4z4 | 
[V:1] _C4=D,4z4 | 
[V:2] _C,4=D,,4z4 | 
[V:1] C4=D,4z4 | 
[V:2] C,4=D,,4z4 | 
[V:1] C4=D,4C4 | 
[V:2] C,4=D,,4C,4 | 
[V:1] =D,4z4z4 | 
[V:2] =D,,4z4z4 | 
[V:1] B,C=A,B, E,2z4[B,G,E,][B,G,E,] | 
[V:2] B,,C,=A,,B,, E,,2z4[B,,E,,][B,,E,,] | 
[V:1] .[B,2G,2E,2].[B,G,E,].[B,G,E,] .[B,2G,2E,2].[B,G,E,].[B,G,E,] .[B,2G,2E,2] z2 | 
[V:2] [B,,2E,,2][B,,E,,][B,,E,,] [B,,2E,,2][B,,E,,][B,,E,,] [B,,2E,,2] z2 | 
[V:1] B,C=A,B, E,2z4.[C_A,F,].[CA,F,] | 
[V:2] B,,C,=A,,B,, E,,2z4[E,_A,,E,,][E,A,,E,,] | 
[V:1] .[C2A,2F,2].[CA,F,].[CA,F,] .[C2A,2F,2].[CA,F,].[CA,F,] .[C2A,2F,2] x2 | 
[V:2] [E,2A,,2E,,2][E,A,,E,,][E,A,,E,,] [E,2A,,2E,,2][E,A,,E,,][E,A,,E,,] [E,2A,,2E,,2] z2 | 
[V:1] CDB,C E,2x4.[CA,F,].[CA,F,] | 
[V:2] C,D,B,,C, E,,2z4[E,A,,E,,][E,A,,E,,] | 
[V:1] .[C2A,2F,2].[CA,F,].[CA,F,] .[C2A,2F,2].[CA,F,].[CA,F,] .[C2A,2F,2] z2 | 
[V:2] [E,2A,,2E,,2][E,A,,E,,][E,A,,E,,] [E,2A,,2E,,2][E,A,,E,,][E,A,,E,,] [E,2A,,2E,,2] z2 | 
[V:1] CDB,C E,2 .[CA,F,].[CA,F,] .[C2A,2F,2].[FECF,].[FECF,] | 
[V:2] C,D,B,,C, E,,2 [E,C,A,,E,,][E,C,A,,E,,] [E,2C,2A,,2E,,2][E,C,A,,E,,][E,C,A,,E,,] | 
[V:1] .[F2E2C2F,2].[fecF].[fecF] .[f2e2c2F2].[fecF].[fecF] .[f2e2c2F2].[fecF].[fecF] | 
[V:2] [E,2C,2A,,2E,,2][ECA,E,][ECA,E,] [E2C2A,2E,2][ECA,E,][ECA,E,] [E2C2A,2E,2][ECA,E,][ECA,E,] | 
[V:1] [b8f8B8]E4 | 
[V:2] [=D,2=D,,2][B,F,D,][B,F,D,] [B,2F,2D,2][B,F,D,][B,F,D,] [B,2=G,2E,2_D,2][B,G,E,D,][B,G,E,D,] | 
[V:1] !trill!E8(17:16:17=D//E//F//G//A//B//c//_d//e//f//g//a//b//c'//d'//e'//f'// | 
[V:2] [B,2E,2C,2][B,E,C,][B,E,C,] [B,2E,2C,2][B,2E,2C,2][A,2E,2C,2][=A,2E,2C,2] | 
[V:1] g'4-g'e'bg !mordent!f=efz/b/ | 
[V:2] [B,2G,2E,2B,,2][K:clef=treble][BGEB,][BGEB,] [B2G2E2B,2][B2G2E2B,2] [B2A2=D2B,2][B2A2D2B,2][K:clef=bass] | 
[V:1] _e8z2 =de | 
[V:2] x2G4G4x2 & x4G,4B,4 | 
[V:1] gff=c!accent!_c4-cB=de | 
[V:2] =A,4_A,4G,4 & =A,2[E2F2] _A,2[=D2F2] G,2[E2G2] | 
[V:1] gff=c!accent!_c4-cB=de | 
[V:2] =A,4_A,4G,4[K:clef=treble] & =A,2[E2F2] _A,2[=D2F2] G,2[B,2E2G2] | 
[V:1] gff=c a=gge baae | 
[V:2] =A,2[F2E2=C2] B,2[=G2E2_D2] _C2[A2E2] & =A,4B,4_C4 | 
[V:1] _c'bbf c'bb=a bc'bg' | 
[V:2] =D2[B2F2] E2[B2G2] B,2[B2G2] & =D4E4B,4 | 
[V:1] g'f'f'_c'!accent!c'4-c'b=d'e' | 
[V:2] =D2[_c2A2] E2!accent![c2G2] B,2[B2G2] & =D4E4B,4 | 
[V:1] g'f'f'_c'!accent!c'4-c'bb_f' | 
[V:2] =D2[_c2A2] E2!accent![c2G2] _D2[B2=G2=E2] & =D4E4_D4 | 
[V:1] _f'e'e'a =f'e'e'g f'e'e'f | 
[V:2] C2[A2_E2] B,2[B2E2] A,2[c2F2E2][K:clef=bass] & C4B,4A,4 | 
[V:1] z cc=D!accent!D4[E2G,2] z2 & x4>A,4G,2 x2 | 
[V:2] [A,2B,,2] z2 z2 B,,2E,,2 z2 | 
[V:1]  [K:B] .[F4D4B,4]z2 .[F2D2B,2] .[G2E2B,2].[F3/D3/B,3/].[^E/^^C/B,/] | 
[V:2]  [K:B] B,,4z2 .B,,2 .E,2.B,,3/.[G,/B,,/] | 
[V:1] .[F2D2B,2].[D2B,2F,2] z2 .[D2B,2F,2] .[E2B,2G,2].[D3/B,3/F,3/].[C/B,/E,/] | 
[V:2] .[F,2B,,2].B,,2 z2 B,,2 B,,2B,,3/B,,/ | 
[V:1] .[D2B,2F,2].[B,2F,2D,2] z2 [FD][FD] [F2D2][G2D2] | 
[V:2] B,,2B,,2 z2 [F,B,,][F,B,,] [F,2B,,2][^E,2B,,2] | 
[V:1] [A2D2][AD][AD] [A2^^C2][A2C2A,2][c4=E4A,4] | 
[V:2] [F,2A,,2][F,A,,][F,A,,] [^E,2A,,2][E,2A,,2][F,4F,,4] | 
[V:1] .[F4D4B,4]z2 .[F2D2B,2] .[G2E2B,2].[F3/D3/B,3/].[^E/=D/B,/] | 
[V:2] [F,4B,,4]z2 .B,,2 .E,2.B,,3/.[G,/B,,/] | 
[V:1] .[F2D2B,2].[D2B,2F,2] z2 .[D2B,2G,2] .[E2C2G,2].[D3/B,3/G,3/].[C/A,/G,/] | 
[V:2] .[F,2B,,2].B,,2 z2 G,,2 .C,2G,,3/[E,/G,,/] | 
[V:1] .[D2B,2G,2].[B,2G,2] z2 [BD][BD] [B2D2][B2E2] | 
[V:2] [D,2G,,2][D,2G,,2] z2 [B,G,][B,G,] [B,2G,2][B,2=G,2] | 
[V:1] B2 c>d!accent![c4E4][B2D2] z2 & E2E2x8 | 
[V:2] [B,2=G,2][A,2F,2][A,4F,4][B,2B,,2] z2 | 
[V:1] .[F4D4B,4]z2 .[F2D2B,2] .[G2E2B,2].[F3/D3/B,3/].[^E/=D/B,/] | 
[V:2] .[F,4B,,4]z2 .B,,2 .E,2.B,,3/.[G,/B,,/] | 
[V:1] .[F2D2B,2][D2B,2F,2] z2 .[D2B,2F,2] .[E2B,2G,2].[D3/B,3/F,3/].[C/B,/E,/] | 
[V:2] [F,2B,,2]B,,2 z2 [B,,2B,,,2] [B,,2B,,,2][B,,3/B,,,3/][B,,/B,,,/] | 
[V:1] .[D2B,2F,2].[B,2F,2D,2] z2 .[FDB,].[FDB,] .[F2D2B,2].[F2D2A,2] | 
[V:2] [B,,2B,,,2][B,,2B,,,2] z2 B,,B,, B,,2D,2 | 
[V:1] [A2F2D2A,2][AFDA,][AFDA,] [A2F2D2A,2][A2F2D2A,2][c4F4E4A,4] | 
[V:2] D,2D,D, D,2F,2[F,,4F,,,4] | 
[V:1] .[F4D4B,4=A,4]z2 .[F2D2B,2A,2] .[G2D2B,2A,2].[F3/D3/B,3/A,3/].[^E/D/B,/A,/] | 
[V:2] [B,,4B,,,4]z2 .B,,2 .B,,2.B,,3/.B,,/ | 
[V:1] .[F2D2B,2=A,2].[D2B,2A,2] z2 [D2B,2A,2] !accent![E2B,2=G,2][D3/B,3/G,3/][C/B,/G,/] | 
[V:2] .B,,2.B,,2 z2 B,,2 [B,,2E,,2][B,,3/E,,3/][B,,/E,,/] | 
[V:1] .[D2B,2F,2].[B,2F,2D,2] z2 [BDB,][BDB,] [B2D2B,2][B2E2B,2] | 
[V:2] [B,,2B,,,2][B,,2B,,,2] z2 G,G, G,2[=G,2=G,,2] | 
[V:1] [B2E2B,2] [cEA,]>[dF]!accent![c4E4][B4D4-] | 
[V:2] [=G,2=G,,2][F,2F,,2]A,4[B,4B,,4] & x4F,8- | 
[V:1] [A4F4D4A,4]z2 .[A2F2D2] .[B2G2D2].[A3/F3/D3/].[G/^E/D/] | 
[V:2] [F,4D,4]z2 .D,2 .G,2.D,3/.[B,/D,/] | 
[V:1] .[A2F2D2].[F2D2A,2] z2 .[F2D2A,2] .[G2D2B,2].[F3/^^C3/A,3/].[^E/C/A,/] | 
[V:2] .[A,2D,2].D,2 z2 .D,2 .G,,2.A,,3/.[G,/A,,/] | 
[V:1] .[F2D2A,2].[D2A,2F,2] z2 [AFDA,][AFDA,] [A2F2D2A,2][AFDA,][AFDA,] | 
[V:2] .[F,2D,2].D,2 z2 D,D, D,2D,D, | 
[V:1] [A2F2D2A,2][AFDA,][AFDA,] [A2F2D2A,2][A2F2D2A,2][c4F4E4A,4] | 
[V:2] D,2D,D, D,2F,2[F,,4F,,,4] | 
[V:1] .[F4D4B,4=A,4]z2 .[F2D2B,2] .[G2D2B,2].[F3/D3/B,3/].[^E/D/B,/] | 
[V:2] .[B,,4B,,,4]z2 .[=A,2B,,2] .[A,2B,,2].[A,3/B,,3/].[A,/B,,/] | 
[V:1] .[F2D2B,2].[D2B,2] z2 [D2B,2A,2] [E2B,2=G,2][D3/B,3/G,3/][C/B,/G,/] | 
[V:2] .[=A,2B,,2].[A,2B,,2] z2 B,,2 [B,,2E,,2][B,,3/E,,3/][B,,/E,,/] | 
[V:1] .[D2B,2F,2].[B,2F,2D,2] z2 [BDB,][BDB,] [B2D2B,2][B2E2B,2] | 
[V:2] [B,,2B,,,2][B,,2B,,,2] z2 G,G, G,2[=G,2=G,,2] | 
[V:1] [B2E2B,2] [cEA,]>[dF]!accent![c4E4][B4D4-] | 
[V:2] x4F,8 & [=G,2=G,,2][F,2F,,2]A,4[B,4B,,4] | 
[V:1] [A4F4D4A,4]z2 .[A2F2D2] .[B2G2D2].[A3/F3/D3/].[G/^E/D/] | 
[V:2] [D,4D,,4]z2 .[D,2D,,2] [D,2G,,2][D,3/D,,3/][B,/D,/] | 
[V:1] .[A2F2D2].[F2D2A,2] z2 .[F2D2A,2] .[G2D2B,2].[F3/D3/A,3/].[^E/^^C/A,/] | 
[V:2] [A,2D,2]D,2 z2 [D,2D,,2] [D,2G,,2][D,3/D,,3/][G,/A,,/] | 
[V:1] .[F2D2A,2].[D2A,2F,2] z2 [AFDA,][AFDA,] [A2F2D2A,2][AFDA,][AFDA,] | 
[V:2] [F,2D,2]D,2 z2 [D,D,,][D,D,,] [D,2D,,2]D,D, | 
[V:1] [A2F2D2A,2][AFDA,][AFDA,] [A2F2D2A,2][A2F2D2A,2][c4F4E4A,4] | 
[V:2] D,2D,D, D,2F,2[F,,4F,,,4] | 
[V:1] .[F4D4B,4=A,4]z2 .[B2F2D2B,2A,2] .[B2G2D2B,2A,2].[BFDB,A,].[B^EDB,A,] | 
[V:2] B,,,/B,,/B,,,/B,,/B,,,/B,,/B,,,/B,,/B,,,/B,,/B,,,/B,,/B,,,/B,,/B,,,/B,,/B,,,/B,,/B,,,/B,,/B,,,/B,,/B,,,/B,,/ | 
[V:1] .[B2F2D2B,2=A,2].[B2D2B,2A,2] z2 [D2B,2A,2] !accent![E2B,2=G,2][D3/B,3/G,3/][C/^^F,/] | 
[V:2] [B,,2B,,,2][B,,2B,,,2] z2 [B,,2B,,,2] [B,,2E,,2][B,,3/E,,3/][^A,,/E,,/] | 
[V:1] [D2C2^^F,2][B,2G,2D,2] z2 [BDB,][BDB,] [B2D2B,2][B2E2B,2] | 
[V:2] [^A,,2D,,2]G,,2 z2 [G,G,,][G,G,,] [G,2G,,2][=G,2=G,,2] | 
[V:1] [B2E2B,2] [cE^A,]>[dF]!accent![c4E4][B2D2] z2 | 
[V:2] [=G,2=G,,2][F,2F,,2][A,4F,4][B,2B,,2] z2 | 
[V:1] z2 [BD]>c!accent![B4D4][A2^^C2] z2 & x2 D2x8 | 
[V:2] x4G,8 & z2 [G,4^E,4]<E,4A,,2 | 
[V:1] z2 B>c!accent![B4D4][A2^^C2] z2 & x2 D2x8 | 
[V:2] x4G,8 & z2 [G,4^E,4]<E,4A,,2 | 
[V:1] z4B,4G,4 | 
[V:2] z4D,8 & x4[F,,4F,,,4][B,,4B,,,4] | 
[V:1] !fermata![_B,12=F,12_B,,12] | 
[V:2] !fermata![=D,,12=D,,,12] | 
[V:1]  [K:Gb] B,C=A,B, E,2x4.[B,G,E,].[B,G,E,] | 
[V:2]  [K:Gb] B,,C,=A,,B,, E,,2z4[B,,E,,][B,,E,,] | 
[V:1] .[B,2G,2E,2].[B,G,E,].[B,G,E,] .[B,2G,2E,2].[B,G,E,].[B,G,E,] .[B,2G,2E,2] x2 | 
[V:2] [B,,2E,,2][B,,E,,][B,,E,,] [B,,2E,,2][B,,E,,][B,,E,,] [B,,2E,,2] z2 | 
[V:1] B,C=A,B, E,2z4.[C_A,F,].[CA,F,] | 
[V:2] B,,C,=A,,B,, E,,2z4[E,_A,,E,,][E,A,,E,,] | 
[V:1] .[C2A,2F,2].[CA,F,].[CA,F,] .[C2A,2F,2].[CA,F,].[CA,F,] .[C2A,2F,2] z2 | 
[V:2] [E,2A,,2E,,2][E,A,,E,,][E,A,,E,,] [E,2A,,2E,,2][E,A,,E,,][E,A,,E,,] [E,2A,,2E,,2] z2 | 
[V:1] CDB,C E,2x4.[CA,F,].[CA,F,] | 
[V:2] C,D,B,,C, E,,2z4[E,A,,E,,][E,A,,E,,] | 
[V:1] .[C2A,2F,2].[CA,F,].[CA,F,] .[C2A,2F,2].[CA,F,].[CA,F,] .[C2A,2F,2] x2 | 
[V:2] [E,2A,,2E,,2][E,A,,E,,][E,A,,E,,] [E,2A,,2E,,2][E,A,,E,,][E,A,,E,,] [E,2A,,2E,,2] z2 | 
[V:1] CDB,C E,2 .[CA,F,].[CA,F,] .[C2A,2F,2].[FECF,].[FECF,] | 
[V:2] C,D,B,,C, E,,2 [E,C,A,,E,,][E,C,A,,E,,] [E,2C,2A,,2E,,2][E,C,A,,E,,][E,C,A,,E,,] | 
[V:1] .[F2E2C2F,2].[fecF].[fecF] .[f2e2c2F2].[fecF].[fecF] .[f2e2c2F2].[fecF].[fecF] | 
[V:2] [E,2C,2A,,2E,,2][ECA,E,][ECA,E,] [E2C2A,2E,2][ECA,E,][ECA,E,] [E2C2A,2E,2][ECA,E,][ECA,E,] | 
[V:1] [b8f8B8]!accent!E4 | 
[V:2] .[=D,2=D,,2][B,F,D,][B,F,D,] [B,2F,2D,2][B,F,D,][B,F,D,] [B,2=G,2E,2_D,2][B,G,E,D,][B,G,E,D,] | 
[V:1] !trill!E8(17:16:17=D//E//F//G//A//B//c//_d//e//f//g//a//b//c'//d'//e'//f'// | 
[V:2] [B,2E,2C,2][B,E,C,][B,E,C,] [B,2E,2C,2][B,2E,2C,2][A,2E,2C,2][=A,2E,2C,2] | 
[V:1] g'4-g'e'bg !mordent!f=efz/!accent!b/ | 
[V:2] [B,2G,2E,2B,,2][K:clef=treble][BGEB,][BGEB,] [B2G2E2B,2][B2G2E2B,2] [B2A2=D2B,2][B2A2D2B,2][K:clef=bass] | 
[V:1] _e8z2 =de | 
[V:2] x4G,4B,4 & E,2[G2E2] G,2[G2E2] B,2[G2E2] | 
[V:1] gff=c_c4-cB=de | 
[V:2] =A,4_A,4G,4 & =A,2[E2F2] _A,2[=D2F2] G,2[E2G2] | 
[V:1] gff=c!accent!_c4-cB=de | 
[V:2] =A,4_A,4G,4[K:clef=treble] & =A,2[F2E2] _A,2[F2=D2] G,2[G2E2B,2] | 
[V:1] gff=c a=gge baae | 
[V:2] =A,2[F2E2=C2] B,2[=G2E2_D2] _C2[A2E2] & =A,4B,4_C4 | 
[V:1] _c'bbf c'bb=a bc'bg' | 
[V:2] =D2[B2F2] E2[B2G2] B,2[B2G2] & =D4E4B,4 | 
[V:1] g'f'f'_c'!accent!c'4-c'b=d'e' | 
[V:2] =D2[_c2A2] E2!accent![c2G2] B,2[B2G2] & =D4E4B,4 | 
[V:1] g'f'f'_c'!accent!c'4-c'bb_f' | 
[V:2] =D2[_c2A2] E2!accent![c2G2] _D2[B2=G2=E2] & =D4E4_D4 | 
[V:1] _f'e'e'a =f'e'e'g f'e'e'f | 
[V:2] C2[A2_E2] B,2[B2E2] A,2[c2F2E2][K:clef=bass] & C4B,4A,4 | 
[V:1] z cc=D!accent!D4[E2G,2] z2 & x4>A,4G,2 x2 | 
[V:2] [A,2B,,2] z2 z2 B,,2E,,2 z2 | 
[V:1] [F4A,4]z2 .[D2B,2] .[FA,].E.[D2B,2] | 
[V:2] .[D,4D,,4]z2 .[D,2G,,2] .[D,2D,,2].[D,2G,,2] | 
[V:1] .[A2F2D2C2] .[AFDC].[AFDC] .[BFDC].A.[FDC].[DC] .[B2D2B,2][G2D2B,2] | 
[V:2] .[D,2D,,2] .[A,D,].[A,D,] .[A,2D,2].[A,D,].[A,D,] .[G,2G,,2].B,,2 | 
[V:1] .[F4D4A,4]z2 .[D2B,2] .[FA,].E.[D2A,2] | 
[V:2] .D,4z2 .[D,2G,,2] .[D,2D,,2].[D,F,,].G,, | 
[V:1] .[E2=C2A,2] .[EC].[EC] .[FD][EC].[DB,].[EC] .[F2D2].[D2F,2] | 
[V:2] .A,,2 .[A,A,,].[A,A,,] .[A,2A,,2].[A,A,,].[A,A,,] .[A,2D,2].[A,2D,2] | 
[V:1] .!accent![F4D4]x4.f.e.d2 & x4z2 .[d2B2G2][A2F2][B2G2] | 
[V:2] .!accent![A,4D,4]z2 .[D2G,2].[D2D,2].[D2G,2] | 
[V:1] x4.b.a.f.dx4 & .[a2d2c2].[adc].[adc] [d2c2][dc]c .[b2d2B2].[g2d2B2] | 
[V:2] z2 .[FDA,F,].[FDA,F,] .[F2D2A,2F,2].[FDA,F,].[FDA,F,]x4 & [D,8D,,8].[G,2G,,2].[B,2B,,2] | 
[V:1] x8.f.e.d2 & [f4d4A4F4]z2 .[d2B2G2] [A2F2][A2F2] | 
[V:2] .[D4D,4]z2 .[D2G,2] .[D,2D,,2].[F,F,,].[G,G,,] | 
[V:1] x4.f.e.d.e x2 x2 & .[e2A2G2].[eAG].[eAG] [AG][AG][AG][AG] .[f2A2F2].[d2D2] | 
[V:2] .[A,2A,,2].[CA,E,].[CA,E,] .[C2A,2E,2].[CA,E,].[CA,E,] .[D2A,2D,2].[D,2D,,2] | 
[V:1] [^c2^C2](3^d!accent!^Dd .[=e2=E2] .[e=AE].[eAE] .[e2A2E2].[e2A2E2] | 
[V:2] [^C,2^C,,2][^D,2^D,,2] [=E,2=E,,2] .[^C=A,E,].[CA,E,] .[C2A,2E,2].[C2A,2E,2] | 
[V:1] .[=e2^G2=E2].[e=dG].[edG] .[^fdG].[edG].[=aed=A].[=bed=B] .[^c'2e2^c2].[a2A2] | 
[V:2] .[=D2=B,2=E,2].[=EDB,E,].[EDB,E,] .[E2D2B,2E,2].[EDB,E,].[EDB,E,] .[E2^C2=A,2].[A,2=A,,2] | 
[V:1] [=a2=A2](3b!accent!Bb .[=c'2=c2] .[c'fc].[c'fc] .[c'2f2c2].[c'fc].[c'fc] | 
[V:2] [=A,,2=A,,,2][_B,,2_B,,,2] .[=C,2=C,,2] .[=C=A,C,].[CA,C,] .[C2A,2C,2].[CA,C,].[CA,C,] | 
[V:1] .[=c'2=e2=c2].[c'ec].[c'ec] .[=d'f=d].[c'ec].[f'=af].[=g'b=g] .[=a'2c'2=a2].[f'2a2f2] | 
[V:2] .[=C2B,2=G,2=C,2].[CB,G,C,].[CB,G,C,] .[C2B,2G,2C,2].[CB,G,C,].[CB,G,C,] .[C2=A,2F,2].[F,2F,,2] | 
[V:1] !accent![_g'3=a3_g3]e'/=c'/ =a/g/e/=c/=A/G/E/=C/ =A,2[D2B,2] | 
[V:2] [_G,8_E,8]x4 & F,,2.F,,.F,, .F,,2.F,,2 [G,2F,,2][=E,2F,,2] | 
[V:1] [=C2=A,2] .!accent![gG].[fF] .[=e2=E2].!accent![fF].[eE] .[_e2_E2].!accent![=d=D].[_d_D] | 
[V:2] [F,2F,,2] .[G,F,,].[F,F,,] .[=E,2F,,2].[F,F,,].[E,F,,] .[_E,2F,,2].[=D,F,,].[_D,F,,] | 
[V:1] .[=c2=C2] !accent![_g'=c'=a]e'/c'/ a/g/e/=c/=A/G/E/=C/ =A,2[D2B,2] | 
[V:2] .[=C,2F,,2] .[G,F,,].[G,F,,] .[G,2F,,2].[G,2F,,2] [G,2F,,2][=E,2F,,2] | 
[V:1] [=C2=A,2] .!accent![_g_G].[fF] .[=e2=E2].!accent![fF].[eE] .[_e2_E2].!accent![=d=D].[_d_D] | 
[V:2] [F,2F,,2] .[G,F,,].[F,F,,] .[=E,2F,,2].[F,F,,].[E,F,,] .[_E,2F,,2].[=D,F,,].[_D,F,,] | 
[V:1] .[=c2=C2].!accent![fF].[=e=E] .[_e2_E2].!accent![_f_F].[eE] .[=d2=D2].!accent![_d_D].[=c=C] | 
[V:2] .[=C,2F,,2].[F,F,,].[=E,F,,] .[_E,2F,,2].[_F,=F,,].[E,F,,] .[=D,2F,,2].[_D,F,,].[C,F,,] | 
[V:1] .[B2B,2].!accent![eE].[=d=D] .[_d2_D2].!accent![eE].[dD] .[c2=C2].!accent![BB,].[AB,] | 
[V:2] .[B,,2F,,2].[E,F,,].[=D,F,,] .[_D,2F,,2].[E,F,,].[D,F,,] .[C,2F,,2].[B,,F,,].[=C,F,,] | 
[V:1] !trill!G8FGAG & B,2B,B, B,2B,2 B,2B,2 | 
[V:2] [D,2F,,2][D,F,,][D,F,,] [D,2F,,2][D,2F,,2] [D,2F,,2][=E,2D,2F,,2] | 
[V:1] [F2=A,2] .[FF,].[FF,] .[F2F,2].[F2F,2].[F2F,2].[F2F,2] | 
[V:2] [F,2=C,2F,,2] z2z4z4 | 
[V:1] z4[B4D4][=A4=C4]- & !accent!F12 | 
[V:2] F,12 | 
[V:1] [=A4=C4][=A4=C4][^G4=B,4]- & !accent!=E12 | 
[V:2] =E,12 | 
[V:1] [G4=B,4][A4C4][=G4_B,4] & _E2EE E2E2 E2E2 | 
[V:2] _E,2E,E, E,2E,2 E,2E,2 | 
[V:1] [_G4E4=C4][F4=D4]z4 | 
[V:2] =A,,4B,,4z4 | 
[V:1] _C4=D,4z4 | 
[V:2] _C,4=D,,4z4 | 
[V:1] C4=D,4z4 | 
[V:2] C,4=D,,4z4 | 
[V:1] C4=D,4C4 | 
[V:2] C,4=D,,4C,4 | 
[V:1] D,4z4z4 | 
[V:2] =D,,4z4z4 | 
[V:1] B,C=A,B, E,2z4.[B,G,E,].[B,G,E,] | 
[V:2] B,,C,=A,,B,, E,,2z4[B,,G,,E,,][B,,G,,E,,] | 
[V:1] .[B,2G,2E,2].[B,G,E,].[B,G,E,] .[B,2G,2E,2].[B,G,E,].[B,G,E,] [B,2G,2E,2] z2 | 
[V:2] [B,,2E,,2][B,,E,,][B,,E,,] [B,,2E,,2][B,,E,,][B,,E,,] [B,,2E,,2] z2 | 
[V:1] B,C=A,B, E,2z4.[C_A,F,].[CA,F,] | 
[V:2] B,,C,=A,,B,, E,,2z4[E,_A,,E,,][E,A,,E,,] | 
[V:1] .[C2A,2F,2].[CA,F,].[CA,F,] .[C2A,2F,2].[CA,F,].[CA,F,] .[C2A,2F,2] z2 | 
[V:2] [E,2A,,2E,,2][E,A,,E,,][E,A,,E,,] [E,2A,,2E,,2][E,A,,E,,][E,A,,E,,] [E,2A,,2E,,2] z2 | 
[V:1] CDB,C E,2x4.[CA,F,].[CA,F,] | 
[V:2] C,D,B,,C, E,,2z4[E,A,,E,,][E,A,,E,,] | 
[V:1] .[C2A,2F,2].[CA,F,].[CA,F,] .[C2A,2F,2].[CA,F,].[CA,F,] .[C2A,2F,2] x2 | 
[V:2] [E,2A,,2E,,2][E,A,,E,,][E,A,,E,,] [E,2A,,2E,,2][E,A,,E,,][E,A,,E,,] [E,2A,,2E,,2] z2 | 
[V:1] CDB,C E,2 .[CA,F,].[CA,F,] .[C2A,2F,2].[FECF,].[FECF,] | 
[V:2] C,D,B,,C, E,,2 [E,C,A,,E,,][E,C,A,,E,,] [E,2C,2A,,2E,,2][E,C,A,,E,,][E,C,A,,E,,] | 
[V:1] .[F2E2C2F,2].[fecF].[fecF] .[f2e2c2F2].[fecF].[fecF] .[f2e2c2F2].[fecF].[fecF] | 
[V:2] [E,2C,2A,,2E,,2][ECA,E,][ECA,E,] [E2C2A,2E,2][ECA,E,][ECA,E,] [E2C2A,2E,2][ECA,E,][ECA,E,] | 
[V:1] [b8f8B8]!accent!E4 | 
[V:2] .[=D,2=D,,2][B,F,D,][B,F,D,] [B,2F,2D,2][B,F,D,][B,F,D,] [B,2=G,2E,2_D,2][B,G,E,D,][B,G,E,D,] | 
[V:1] !trill!E8(17:16:17=D//E//F//G//A//B//c//_d//e//f//g//a//b//c'//d'//e'//f'// | 
[V:2] [B,2E,2C,2][B,E,C,][B,E,C,] [B,2E,2C,2][B,2E,2C,2][A,2E,2C,2][=A,2E,2C,2] | 
[V:1] g'4-g'e'bg !mordent!f=efz/!accent!b/ | 
[V:2] [B,2G,2E,2B,,2][K:clef=treble][BGEB,][BGEB,] [B2G2E2B,2][B2G2E2B,2] [B2A2=D2B,2][B2A2D2B,2][K:clef=bass] | 
[V:1] _e8z2 =de | 
[V:2] E,4G,4B,4 & E,2[G2E2] G,2[G2E2] B,2[G2E2] | 
[V:1] gff=c!accent!_c4-cB=de | 
[V:2] =A,4_A,4G,4 & =A,2[E2F2] _A,2[=D2F2] G,2[E2G2] | 
[V:1] gff=c!accent!_c4-cB=de | 
[V:2] A,4_A,4G,4[K:clef=treble] & A,2[F2E2=C2] _A,2[=D2F2] G,2[B,2E2G2] | 
[V:1] gff=c a=gge baae | 
[V:2] =A,2[F2E2=C2] B,2[=G2E2_D2] _C2[A2E2] & =A,4B,4_C4 | 
[V:1] _c'bbf c'bb=a bc'bg' | 
[V:2] =D2[B2F2] E2[B2G2] B,2[B2G2] & =D4E4B,4 | 
[V:1] g'f'f'_c'!accent!c'4-c'b=d'e' | 
[V:2] =D2[_c2A2] E2!accent![c2G2] B,2[B2G2] & =D4E4B,4 | 
[V:1] g'f'f'_c'!accent!c'4-c'bb_f' | 
[V:2] =D2[_c2A2] E2!accent![c2G2] _D2[B2=G2=E2] & =D4E4_D4 | 
[V:1] _f'e'e'a =f'e'e'g f'e'e'f | 
[V:2] C2[A2_E2] B,2[B2E2] A,2[c2F2E2][K:clef=bass] & C4B,4A,4 | 
[V:1] z cc=D!accent!D8 | 
[V:2] [A,4F,4B,,4]z2 .[A,2F,2B,,2].[B,,2B,,,2] z2 | 
[V:1] z =ccE!accent!E8 | 
[V:2] !accent![=A,4G,4B,,4]z2 .[A,2G,2B,,2].[B,,2B,,,2] z2 | 
[V:1] z ggG!accent!G4-GGFE | 
[V:2] z12 | 
[V:1] Ecc=D!accent!D4[E2G,2] z2 & x4>A,4 x2 x2 |]  
[V:2] z4z2 [B,,2B,,,2][E,,2E,,,2] z2 |]
